icons/text-bold-outlined-12px.svg

<svg width="12" height="12" viewBox="0 0 12 12" fill="none" xmlns="http://www.w3.org/2000/svg"><path d="M1.9375 2.25C1.9375 1.42386 2.61136 0.75 3.4375 0.75H5.99707C7.58321 0.75 8.87207 2.03886 8.87207 3.625C8.87207 5.21114 7.58321 6.5 5.99707 6.5H2.4375C2.16136 6.5 1.9375 6.27614 1.9375 6V2.25ZM2.9375 5.5H5.99707C7.03093 5.5 7.87207 4.65886 7.87207 3.625C7.87207 2.59114 7.03093 1.75 5.99707 1.75H3.4375C3.16364 1.75 2.9375 1.97614 2.9375 2.25V5.5Z" fill="currentColor"/><path d="M9.0625 8.375C9.0625 7.34114 8.22136 6.5 7.1875 6.5H2.9375V9.75C2.9375 10.0239 3.16364 10.25 3.4375 10.25H7.1875C8.22136 10.25 9.0625 9.40886 9.0625 8.375ZM10.0625 8.375C10.0625 9.96114 8.77364 11.25 7.1875 11.25H3.4375C2.61136 11.25 1.9375 10.5761 1.9375 9.75V6C1.9375 5.72386 2.16136 5.5 2.4375 5.5H7.1875C8.77364 5.5 10.0625 6.78886 10.0625 8.375Z" fill="currentColor"/></svg>

<svg xmlns="http://www.w3.org/2000/svg" width="12" height="12" fill="currentColor"><path fill="currentColor" d="M9.063 8.375A1.877 1.877 0 0 0 7.187 6.5h-4.25v3.25c0 .274.227.5.5.5h3.75a1.877 1.877 0 0 0 1.875-1.875m1 0a2.877 2.877 0 0 1-2.876 2.875h-3.75c-.826 0-1.5-.674-1.5-1.5v-7.5c0-.826.674-1.5 1.5-1.5h2.56a2.877 2.877 0 0 1 2.875 2.875c0 .781-.313 1.49-.82 2.008a2.88 2.88 0 0 1 2.01 2.742M2.936 5.5h3.06a1.877 1.877 0 0 0 1.875-1.875A1.877 1.877 0 0 0 5.997 1.75h-2.56c-.273 0-.5.226-.5.5z"/></svg>
